X:138
T: ARBEIT MACHT DAS LEBEN SUESS
N: F0260
O: Europa, Mitteleuropa, Deutschland
R: Jugend - Lied, Belehrung, Moral, religioes
M: 3/4
L: 1/16
K: G
 | B6A2G2B2 | e3dd8 |
c6B2c2d2 | B4z8 |
A6A2B2^c2 | d3AA8 |
f6e2d2^c2 | d12 |
c6B2e2d2 | c3Bc4z4 |
B3ed4^c4 | d8z4 |
c2c2c2c2B2B2 | e4e4e4 |
d8F4 | G8z4

@@@ Tune index: 5569
